X: 2
T: Miss McLeod's Reel 1
C: Irish
M: C|
R: reel
K: G
|: "G"GABc dBGA | B2BA BcBA | GABc dBGB | "D"A2AG AcBA |
   "G"GABc dBGA | B2{Bc}BA B2d2 | "C"e2ef edef | "D"gedB AcBA :|
|: "G"G2g2 edeg | B2 {Bc}BA BcBA | G2g2 edeg | "D"A2AG AcBA |
   "G"G2g2 edeg | B2 {Bc}BA B2d2 | "C"e2ef edef | "D"gedB AcBA :|\
  "Transition to Red Haired Boy"gedB A2AF ||
N:Fiddlers Fakebook pg 192 adapted by Peter Ostapenko.
N:Last update - PO 2/24/2008
N:G Major
